X: 22934
T: Larry Redican's Bow
R: reel
M: 4/4
K: Dmajor
D2FD A,DFD|E2GE B,EGE|DddA BAFD|E2EF EDB,C|
D2FD A,DFD|E2GE B,EGE|DddA BAFD|1 EDEF D3A,:|2 EDEF D2FA||
|:B3A B2Bc|dBBA BdcB|A2 (3cBA eAcB|ABce faec|
B3A B3c|dBBA B2Bc|dBcA BAFE|1 FBBA B2FA:|2 FBBA BAFE||

